X: 397
T: Buonapartes Defeat
%R: reel
Z: 2014 John Chambers <jc:trillian.mit.edu>
B: Preston "Twenty four Country Dances for the Year 1800" p.179 #1
F: http://www.vwml.org/browse/browse-collections-dance-tune-books/browse-prestons1800# 2014-8-10
M: C|
L: 1/8
K: A
|:\
ecdB AGBG | FEFG Acef |\
ecdB AGBG | FEFG A2A2 :|
|:\
cAce ecBA | dBdf fdcB |\
cAce fdfa | gegb a2a2 :|
|:\
abc'b afaf | ecec BABc |\
abc'b afaf | ecdB A2A2 :|
|:\
ECFD GEAF | Acec BABc |\
ECFD GEAF | dBAG A2A2 :|
% - - - - - - - - - - - - - - - - - - - - - - - - -
%%begintext align
%% Cast off 2 Cu: & back again .| change sides and
%% back again :| lead down the middle and up again
%% thro' the top Cu: cast off & right & left :|:
%%endtext
% - - - - - - - - - - - - - - - - - - - - - - - - -

%%sep 1 1 500
%%sep 1 1 500
